Sources/FrostedUI/Resources/Icons.xcassets/minimize12.imageset/minimize-12.svg

<svg width="12" height="12" viewBox="0 0 12 12" fill="none" xmlns="http://www.w3.org/2000/svg" data-fui-icon="true">
  <path
    d="M10.7013 6.505C11.1155 6.505 11.4513 6.84079 11.4513 7.255C11.4511 7.66901 11.1154 8.005 10.7013 8.005H9.06555L11.5304 10.4698C11.8231 10.7627 11.8232 11.2375 11.5304 11.5304C11.2375 11.8232 10.7627 11.8232 10.4698 11.5304L8.00403 9.06555V10.7013C8.00403 11.1155 7.66824 11.4513 7.25403 11.4513C6.84003 11.451 6.505 11.1154 6.505 10.7013V7.255C6.50501 6.84095 6.84003 6.50525 7.25403 6.505H10.7013ZM0.469849 0.469849C0.762744 0.176986 1.23751 0.176966 1.5304 0.469849L3.99524 2.93469V1.29797C3.99539 0.88398 4.33125 0.548123 4.74524 0.547974C5.15936 0.547976 5.49509 0.883888 5.49524 1.29797V4.74524C5.49524 5.15945 5.15945 5.49524 4.74524 5.49524H1.29797C0.883943 5.49503 0.547974 5.15932 0.547974 4.74524C0.548084 4.33125 0.884011 3.99545 1.29797 3.99524H2.93469L0.469849 1.5304C0.176976 1.23752 0.177016 0.762747 0.469849 0.469849Z"
    fill="currentColor"
  />
</svg>

<svg xmlns="http://www.w3.org/2000/svg" width="12" height="12" fill="none" data-fui-icon="true" viewBox="0 0 12 12"><path fill="currentColor" d="M10.701 6.505a.75.75 0 0 1 0 1.5H9.066l2.464 2.465a.75.75 0 0 1-1.06 1.06L8.004 9.066V10.7a.75.75 0 0 1-1.499 0V7.255a.75.75 0 0 1 .749-.75zM.47.47a.75.75 0 0 1 1.06 0l2.465 2.465V1.298a.75.75 0 0 1 1.5 0v3.447a.75.75 0 0 1-.75.75H1.298a.75.75 0 0 1 0-1.5h1.637L.47 1.53a.75.75 0 0 1 0-1.06"/></svg>
